X: 1
T: Sandy MacIntyre's March
Z: ceolachan
S: https://thesession.org/tunes/12153#setting12153
R: barndance
M: 4/4
L: 1/8
K: Amaj
|: A<F |E2 E>F A2 A>B | c>BA<c e2 e<a | f2 f>a f>ec<f | e>cB<A B2 B<c |
E2 E>F A2 A>B | c>BA<c e2 e<a | f2 f>a f>ec<B | c2 A2 A2 :|
|: c<d |e2 e>f e>dc<d | e>dc<d e2 e<a | f2 f>g f>ef<g | a>gf<e c2 c<a |
e2 e>f e>dc<d | e>dc<d e2 e<a | f2 f>a f>ec<B | c2 A2 A2 :|
|: f>g |a>ba<g f2 e>f | e>dc<d e2 f>g | a>ba<g f2 e>f | e<cA<c B2 f>g |
a>ba<g f2 e>f | e>dc<d e2 e<a | f2 f>a f>ec<B | c2 A2 A2 :|
